X: 37061
T: Silver Spear, The
R: reel
M: 4/4
K: Dmajor
|:"D"FA {BcB}A2 {A}BAFA|{A}BAFA ecdA|FA {BcB}A2 {A}BAFA|"G"{c}dfed BcdA|
"D"FA {BcB}A2 {A}BAFA|{A}BAFA d2 ef|"G"{f}g2 fe f2 fe|dfed {A}B2 A[Gd]:|
|:"D"fa (3agf afff|"G"{f}gefd edcd|"D"fa (3agf a2 fa|"G"gfed (3BdB AG|
"D"fa a{bagf}g a2 fa|"G"gfed Bdef|{f}g2 fe f2 fe|dfed {A}B2 A[Gd]:|

